X:1
T:Idaho
T:Idaho
T:Jesse Stone
C:Jesse Stone
Z:All Rights Reserved
L:1/4
M:4/4
K:C
V:1 treble 
%%MIDI program 4
V:1
 z2 z D |"G" B3 G | B G B G | B G/E/- E2- | E2 B2 |"Am" A3 G | A G"D7" B B/G/- |"G" G2"D7" D D | %8
w: A-|way be-|yond the hills in|I- da- ho _|_ where|yawn- ing|can- yons greet the sun|_ as it|
"G" B3 G | B G B G | B G/E/- E2- | E2 B2 |"Am" A3 G | A G"D7" B B/G/- |"G" G4- | G2 z z | %16
w: smiles a-|bove the trees in|I- da- ho _|_ to|say an-|oth- er night in done|_||
"F7" d2 c d | G2 A d |"Bb" c3 _B | F4 |"E7" ^c B2 c | ^F2 ^G ^c |"A7" B2 A2 |"D7" B2 ^A2 | %24
w: warm sum- mer|winds toss the|wav- ing|grain|call- ing me|back to my|home a-|gain To|
"G" B3 G | B G B G | B G/E/- E2- | E2 B2 |"Am" A3 G | A G"D7" B B/G/- |"G" G4- | G3 z |] %32
w: dream sweet|mem- o- ries of|long a- go _|_ be-|yond the|hills in I- da- ho|_||

